X: 3268
T: Belfast, The
R: hornpipe
M: 4/4
K: Dmajor
|:ag|faef deAF|DFAd f2ef|gbeg deAF|GBAG E2ag|
faef deAF|DFAd f2ef|gfed cABc|d2f2 d2:|
|:DE|GFGA Bcde|fgfe dcdB|A2f2 fef2|G2e2 ede2|
GFGA Bcde|fgfe dcdB|Afed cABc|d2f2 d2:|
|:ag|fgef decd|BcAB G2ba|gafg efde|cdBc A2ag|
fgef decd|BcAB GAFG|Efed cABc|d2f2 d2:|

